!!!OTL: HAENSCHEN KRIECHE DURCH DAS LOCH
!!!ARE: Europa, Mitteleuropa, Deutschland, Oberdiebach am Rhein
!!!SCT: K2364A
!!!YEM: Copyright 1995, estate of Helmut Schaffrath.
**kern
*ICvox
*Ivox
*M2/4
*k[f#]
*G:
=1
{8dd
8dd
8b
8ee
=2
8dd
8dd
8b}
{16g
16g
=3
8dd
8dd
8ee
8ee
=4
4dd
8b
8r}
=5
{8dd
8dd
8b
8ee
=6
8dd
8dd
8b}
{8g
=7
8dd
8dd
8ee
8ee
=8
4dd
8b
8r}
==
!!!AGN: Kinder - Lied, Tanz -, Lauf - Spiel
!!!ONB: ESAC (Essen Associative Code) Database: KINDER
!!!AMT: simple duple
!!!AIN: vox
!!!EED: Helmut Schaffrath
!!!EEV: 1.0
*-
